Earnware-Logo-Design-System.svg

<svg width="182" height="44" viewBox="0 0 182 44" fill="none" xmlns="http://www.w3.org/2000/svg">
<path d="M0 20H15.5511L17 16.5137H4.63636V11.7431H16.0341V8.25686H4.63636V3.48628H17V0H0V20Z" fill="#222963"/>
<path d="M26.713 0L19 20H22.5874L28.5067 4.86242L34.426 20H39L31.287 0H26.713Z" fill="#222963"/>
<path d="M78.4627 13.8532L68.4428 0H64.0945H64V20H68.5373V6.14679L78.4627 20H78.5572H82.9055H83V0H78.4627V13.8532Z" fill="#222963"/>
<path d="M126.68 0L113 20H117.14L126.68 6.14679V20H131V0H126.68Z" fill="#222963"/>
<path d="M116.751 0L107.169 13.8532V0H102.831L93.339 13.8532V0H89V20H93.2485L102.831 6.14679V20H107.169L121 0H116.751Z" fill="#222963"/>
<path d="M55.775 13.6073C58.815 12.7854 61 10.137 61 6.94066C61 5.66213 60.62 4.47493 60.05 3.47036C58.91 1.55255 56.82 0.182648 54.445 0C54.255 0 42 0 42 0V19.9087H46.56V3.47036H52.925C54.92 3.47036 56.535 5.02286 56.535 6.94066C56.535 8.67582 55.205 10.0457 53.495 10.3197C53.305 10.3197 53.115 10.411 53.02 10.411H49.125L56.06 20H60.43L55.775 13.6073Z" fill="#222963"/>
<path d="M176 3.48628V0H159V20H174.455L176 16.5137H163.636V11.7431H175.034V8.25686H163.636V3.48628H176Z" fill="#222963"/>
<path d="M150.775 13.6073C153.815 12.7854 156 10.137 156 6.94066C156 5.66213 155.62 4.47493 155.05 3.47036C153.91 1.55255 151.82 0.182648 149.445 0C149.255 0 137 0 137 0V19.9087H141.56V3.47036H147.925C149.92 3.47036 151.535 5.02286 151.535 6.94066C151.535 8.67582 150.205 10.0457 148.495 10.3197C148.305 10.3197 148.115 10.411 148.02 10.411H144.125L151.06 20H155.43L150.775 13.6073Z" fill="#222963"/>
<path d="M55 25L182 25L177 42H55V25Z" fill="white"/>
<path d="M61.7227 37V29.8906H63.8223C64.4505 29.8906 65.0072 30.0306 65.4922 30.3105C65.9805 30.5905 66.3581 30.9876 66.625 31.502C66.8919 32.0163 67.0254 32.6055 67.0254 33.2695V33.626C67.0254 34.2998 66.8903 34.8923 66.6201 35.4033C66.3532 35.9144 65.9707 36.3083 65.4727 36.585C64.9779 36.8617 64.4098 37 63.7686 37H61.7227ZM62.958 30.8867V36.0137H63.7637C64.4115 36.0137 64.9079 35.8118 65.2529 35.4082C65.6012 35.0013 65.7786 34.4186 65.7852 33.6602V33.2646C65.7852 32.4932 65.6175 31.904 65.2822 31.4971C64.9469 31.0902 64.4603 30.8867 63.8223 30.8867H62.958ZM75.4111 33.8262H72.4912V36.0137H75.9043V37H71.2559V29.8906H75.8701V30.8867H72.4912V32.8496H75.4111V33.8262ZM83.626 35.1689C83.626 34.8564 83.5153 34.6156 83.2939 34.4463C83.0758 34.277 82.6803 34.1061 82.1074 33.9336C81.5345 33.7611 81.0788 33.569 80.7402 33.3574C80.0924 32.9505 79.7686 32.4199 79.7686 31.7656C79.7686 31.1927 80.0013 30.7207 80.4668 30.3496C80.9355 29.9785 81.5426 29.793 82.2881 29.793C82.7829 29.793 83.224 29.8841 83.6113 30.0664C83.9987 30.2487 84.3031 30.5091 84.5244 30.8477C84.7458 31.1829 84.8564 31.5557 84.8564 31.9658H83.626C83.626 31.5947 83.5088 31.305 83.2744 31.0967C83.0433 30.8851 82.7113 30.7793 82.2783 30.7793C81.8747 30.7793 81.5605 30.8656 81.3359 31.0381C81.1146 31.2106 81.0039 31.4515 81.0039 31.7607C81.0039 32.0212 81.1243 32.2393 81.3652 32.415C81.6061 32.5876 82.0033 32.7568 82.5566 32.9229C83.11 33.0856 83.5544 33.2728 83.8896 33.4844C84.2249 33.6927 84.4707 33.9336 84.627 34.207C84.7832 34.4772 84.8613 34.7946 84.8613 35.1592C84.8613 35.7516 84.6335 36.2236 84.1777 36.5752C83.7253 36.9235 83.11 37.0977 82.332 37.0977C81.8177 37.0977 81.3441 37.0033 80.9111 36.8145C80.4814 36.6224 80.1462 36.3587 79.9053 36.0234C79.6676 35.6882 79.5488 35.2975 79.5488 34.8516H80.7842C80.7842 35.2552 80.9176 35.5677 81.1846 35.7891C81.4515 36.0104 81.834 36.1211 82.332 36.1211C82.7617 36.1211 83.084 36.0348 83.2988 35.8623C83.5169 35.6865 83.626 35.4554 83.626 35.1689ZM90.249 37H89.0186V29.8906H90.249V37ZM100.217 36.0771C99.9596 36.4124 99.6032 36.6663 99.1475 36.8389C98.6917 37.0114 98.1742 37.0977 97.5947 37.0977C96.999 37.0977 96.4717 36.9626 96.0127 36.6924C95.5537 36.4222 95.1989 36.0365 94.9482 35.5352C94.7008 35.0306 94.5723 34.443 94.5625 33.7725V33.2158C94.5625 32.1416 94.8197 31.3034 95.334 30.7012C95.8483 30.0957 96.5661 29.793 97.4873 29.793C98.2783 29.793 98.9066 29.9883 99.3721 30.3789C99.8376 30.7695 100.118 31.3327 100.212 32.0684H99.001C98.8643 31.2122 98.3678 30.7842 97.5117 30.7842C96.9583 30.7842 96.5368 30.9844 96.2471 31.3848C95.9606 31.7819 95.8125 32.3662 95.8027 33.1377V33.6846C95.8027 34.4528 95.9639 35.0501 96.2861 35.4766C96.6117 35.8997 97.0625 36.1113 97.6387 36.1113C98.2702 36.1113 98.7194 35.9681 98.9863 35.6816V34.29H97.5215V33.3525H100.217V36.0771ZM110.214 37H108.979L105.81 31.9561V37H104.574V29.8906H105.81L108.988 34.9541V29.8906H110.214V37ZM123.88 35.1689C123.88 34.8564 123.769 34.6156 123.548 34.4463C123.33 34.277 122.934 34.1061 122.361 33.9336C121.788 33.7611 121.333 33.569 120.994 33.3574C120.346 32.9505 120.022 32.4199 120.022 31.7656C120.022 31.1927 120.255 30.7207 120.721 30.3496C121.189 29.9785 121.797 29.793 122.542 29.793C123.037 29.793 123.478 29.8841 123.865 30.0664C124.253 30.2487 124.557 30.5091 124.778 30.8477C125 31.1829 125.11 31.5557 125.11 31.9658H123.88C123.88 31.5947 123.763 31.305 123.528 31.0967C123.297 30.8851 122.965 30.7793 122.532 30.7793C122.129 30.7793 121.814 30.8656 121.59 31.0381C121.368 31.2106 121.258 31.4515 121.258 31.7607C121.258 32.0212 121.378 32.2393 121.619 32.415C121.86 32.5876 122.257 32.7568 122.811 32.9229C123.364 33.0856 123.808 33.2728 124.144 33.4844C124.479 33.6927 124.725 33.9336 124.881 34.207C125.037 34.4772 125.115 34.7946 125.115 35.1592C125.115 35.7516 124.887 36.2236 124.432 36.5752C123.979 36.9235 123.364 37.0977 122.586 37.0977C122.072 37.0977 121.598 37.0033 121.165 36.8145C120.735 36.6224 120.4 36.3587 120.159 36.0234C119.922 35.6882 119.803 35.2975 119.803 34.8516H121.038C121.038 35.2552 121.172 35.5677 121.438 35.7891C121.705 36.0104 122.088 36.1211 122.586 36.1211C123.016 36.1211 123.338 36.0348 123.553 35.8623C123.771 35.6865 123.88 35.4554 123.88 35.1689ZM131.519 33.2598L133.154 29.8906H134.521L132.139 34.3828V37H130.898V34.3828L128.511 29.8906H129.883L131.519 33.2598ZM141.931 35.1689C141.931 34.8564 141.82 34.6156 141.599 34.4463C141.381 34.277 140.985 34.1061 140.412 33.9336C139.839 33.7611 139.383 33.569 139.045 33.3574C138.397 32.9505 138.073 32.4199 138.073 31.7656C138.073 31.1927 138.306 30.7207 138.771 30.3496C139.24 29.9785 139.847 29.793 140.593 29.793C141.088 29.793 141.529 29.8841 141.916 30.0664C142.303 30.2487 142.608 30.5091 142.829 30.8477C143.05 31.1829 143.161 31.5557 143.161 31.9658H141.931C141.931 31.5947 141.813 31.305 141.579 31.0967C141.348 30.8851 141.016 30.7793 140.583 30.7793C140.179 30.7793 139.865 30.8656 139.641 31.0381C139.419 31.2106 139.309 31.4515 139.309 31.7607C139.309 32.0212 139.429 32.2393 139.67 32.415C139.911 32.5876 140.308 32.7568 140.861 32.9229C141.415 33.0856 141.859 33.2728 142.194 33.4844C142.53 33.6927 142.775 33.9336 142.932 34.207C143.088 34.4772 143.166 34.7946 143.166 35.1592C143.166 35.7516 142.938 36.2236 142.482 36.5752C142.03 36.9235 141.415 37.0977 140.637 37.0977C140.122 37.0977 139.649 37.0033 139.216 36.8145C138.786 36.6224 138.451 36.3587 138.21 36.0234C137.972 35.6882 137.854 35.2975 137.854 34.8516H139.089C139.089 35.2552 139.222 35.5677 139.489 35.7891C139.756 36.0104 140.139 36.1211 140.637 36.1211C141.066 36.1211 141.389 36.0348 141.604 35.8623C141.822 35.6865 141.931 35.4554 141.931 35.1689ZM152.387 30.8867H150.17V37H148.944V30.8867H146.747V29.8906H152.387V30.8867ZM160.479 33.8262H157.56V36.0137H160.973V37H156.324V29.8906H160.938V30.8867H157.56V32.8496H160.479V33.8262ZM166.58 29.8906L168.631 35.3398L170.677 29.8906H172.273V37H171.043V34.6562L171.165 31.5215L169.065 37H168.182L166.087 31.5264L166.209 34.6562V37H164.979V29.8906H166.58Z" fill="#232533"/>
</svg>

<?xml version="1.0" encoding="utf-8"?>
<!-- Generator: Adobe Illustrator 25.2.3, SVG Export Plug-In . SVG Version: 6.00 Build 0)  -->
<svg version="1.1" id="Layer_1" xmlns="http://www.w3.org/2000/svg" xmlns:xlink="http://www.w3.org/1999/xlink" x="0px" y="0px"
	 viewBox="0 0 182 44" style="enable-background:new 0 0 182 44;" xml:space="preserve">
<style type="text/css">
	.st0{fill:#222963;}
	.st1{fill:#FFFFFF;}
	.st2{fill:#232533;}
</style>
<path class="st0" d="M0,20h15.6l1.4-3.5H4.6v-4.8H16V8.3H4.6V3.5H17V0H0V20z"/>
<path class="st0" d="M26.7,0L19,20h3.6l5.9-15.1L34.4,20H39L31.3,0H26.7z"/>
<path class="st0" d="M78.5,13.9L68.4,0h-4.3H64v20h4.5V6.1L78.5,20h0.1h4.3H83V0h-4.5V13.9z"/>
<path class="st0" d="M126.7,0L113,20h4.1l9.5-13.9V20h4.3V0H126.7z"/>
<path class="st0" d="M116.8,0l-9.6,13.9V0h-4.3l-9.5,13.9V0H89v20h4.2l9.6-13.9V20h4.3L121,0H116.8z"/>
<path class="st0" d="M55.8,13.6c3-0.8,5.2-3.5,5.2-6.7c0-1.3-0.4-2.5-1-3.5c-1.1-1.9-3.2-3.3-5.6-3.5C54.3,0,42,0,42,0v19.9h4.6V3.5
	h6.4c2,0,3.6,1.6,3.6,3.5c0,1.7-1.3,3.1-3,3.4c-0.2,0-0.4,0.1-0.5,0.1h-3.9l6.9,9.6h4.4L55.8,13.6z"/>
<path class="st0" d="M176,3.5V0h-17v20h15.5l1.5-3.5h-12.4v-4.8H175V8.3h-11.4V3.5H176z"/>
<path class="st0" d="M150.8,13.6c3-0.8,5.2-3.5,5.2-6.7c0-1.3-0.4-2.5-0.9-3.5c-1.1-1.9-3.2-3.3-5.6-3.5C149.3,0,137,0,137,0v19.9
	h4.6V3.5h6.4c2,0,3.6,1.6,3.6,3.5c0,1.7-1.3,3.1-3,3.4c-0.2,0-0.4,0.1-0.5,0.1h-3.9l6.9,9.6h4.4L150.8,13.6z"/>
<path class="st1" d="M55,25h127l-5,17H55V25z"/>
<path class="st2" d="M61.7,37v-7.1h2.1c0.6,0,1.2,0.1,1.7,0.4c0.5,0.3,0.9,0.7,1.1,1.2c0.3,0.5,0.4,1.1,0.4,1.8v0.4
	c0,0.7-0.1,1.3-0.4,1.8c-0.3,0.5-0.6,0.9-1.1,1.2C65,36.9,64.4,37,63.8,37H61.7z M63,30.9V36h0.8c0.6,0,1.1-0.2,1.5-0.6
	c0.3-0.4,0.5-1,0.5-1.7v-0.4c0-0.8-0.2-1.4-0.5-1.8c-0.3-0.4-0.8-0.6-1.5-0.6H63z M75.4,33.8h-2.9V36h3.4v1h-4.6v-7.1h4.6v1h-3.4v2
	h2.9V33.8z M83.6,35.2c0-0.3-0.1-0.6-0.3-0.7c-0.2-0.2-0.6-0.3-1.2-0.5c-0.6-0.2-1-0.4-1.4-0.6c-0.6-0.4-1-0.9-1-1.6
	c0-0.6,0.2-1,0.7-1.4c0.5-0.4,1.1-0.6,1.8-0.6c0.5,0,0.9,0.1,1.3,0.3c0.4,0.2,0.7,0.4,0.9,0.8c0.2,0.3,0.3,0.7,0.3,1.1h-1.2
	c0-0.4-0.1-0.7-0.4-0.9c-0.2-0.2-0.6-0.3-1-0.3c-0.4,0-0.7,0.1-0.9,0.3c-0.2,0.2-0.3,0.4-0.3,0.7c0,0.3,0.1,0.5,0.4,0.7
	c0.2,0.2,0.6,0.3,1.2,0.5c0.6,0.2,1,0.3,1.3,0.6c0.3,0.2,0.6,0.4,0.7,0.7c0.2,0.3,0.2,0.6,0.2,1c0,0.6-0.2,1.1-0.7,1.4
	c-0.5,0.3-1.1,0.5-1.8,0.5c-0.5,0-1-0.1-1.4-0.3c-0.4-0.2-0.8-0.5-1-0.8c-0.2-0.3-0.4-0.7-0.4-1.2h1.2c0,0.4,0.1,0.7,0.4,0.9
	c0.3,0.2,0.6,0.3,1.1,0.3c0.4,0,0.8-0.1,1-0.3C83.5,35.7,83.6,35.5,83.6,35.2z M90.2,37H89v-7.1h1.2V37z M100.2,36.1
	c-0.3,0.3-0.6,0.6-1.1,0.8c-0.5,0.2-1,0.3-1.6,0.3c-0.6,0-1.1-0.1-1.6-0.4c-0.5-0.3-0.8-0.7-1.1-1.2c-0.2-0.5-0.4-1.1-0.4-1.8v-0.6
	c0-1.1,0.3-1.9,0.8-2.5c0.5-0.6,1.2-0.9,2.2-0.9c0.8,0,1.4,0.2,1.9,0.6s0.7,1,0.8,1.7H99c-0.1-0.9-0.6-1.3-1.5-1.3
	c-0.6,0-1,0.2-1.3,0.6c-0.3,0.4-0.4,1-0.4,1.8v0.5c0,0.8,0.2,1.4,0.5,1.8c0.3,0.4,0.8,0.6,1.4,0.6c0.6,0,1.1-0.1,1.3-0.4v-1.4h-1.5
	v-0.9h2.7V36.1z M110.2,37H109l-3.2-5v5h-1.2v-7.1h1.2L109,35v-5.1h1.2V37z M123.9,35.2c0-0.3-0.1-0.6-0.3-0.7
	c-0.2-0.2-0.6-0.3-1.2-0.5c-0.6-0.2-1-0.4-1.4-0.6c-0.6-0.4-1-0.9-1-1.6c0-0.6,0.2-1,0.7-1.4c0.5-0.4,1.1-0.6,1.8-0.6
	c0.5,0,0.9,0.1,1.3,0.3c0.4,0.2,0.7,0.4,0.9,0.8c0.2,0.3,0.3,0.7,0.3,1.1h-1.2c0-0.4-0.1-0.7-0.4-0.9c-0.2-0.2-0.6-0.3-1-0.3
	c-0.4,0-0.7,0.1-0.9,0.3c-0.2,0.2-0.3,0.4-0.3,0.7c0,0.3,0.1,0.5,0.4,0.7c0.2,0.2,0.6,0.3,1.2,0.5c0.6,0.2,1,0.3,1.3,0.6
	c0.3,0.2,0.6,0.4,0.7,0.7c0.2,0.3,0.2,0.6,0.2,1c0,0.6-0.2,1.1-0.7,1.4c-0.5,0.3-1.1,0.5-1.8,0.5c-0.5,0-1-0.1-1.4-0.3
	c-0.4-0.2-0.8-0.5-1-0.8c-0.2-0.3-0.4-0.7-0.4-1.2h1.2c0,0.4,0.1,0.7,0.4,0.9c0.3,0.2,0.6,0.3,1.1,0.3c0.4,0,0.8-0.1,1-0.3
	C123.8,35.7,123.9,35.5,123.9,35.2z M131.5,33.3l1.6-3.4h1.4l-2.4,4.5V37h-1.2v-2.6l-2.4-4.5h1.4L131.5,33.3z M141.9,35.2
	c0-0.3-0.1-0.6-0.3-0.7c-0.2-0.2-0.6-0.3-1.2-0.5c-0.6-0.2-1-0.4-1.4-0.6c-0.6-0.4-1-0.9-1-1.6c0-0.6,0.2-1,0.7-1.4
	c0.5-0.4,1.1-0.6,1.8-0.6c0.5,0,0.9,0.1,1.3,0.3c0.4,0.2,0.7,0.4,0.9,0.8c0.2,0.3,0.3,0.7,0.3,1.1h-1.2c0-0.4-0.1-0.7-0.4-0.9
	c-0.2-0.2-0.6-0.3-1-0.3c-0.4,0-0.7,0.1-0.9,0.3c-0.2,0.2-0.3,0.4-0.3,0.7c0,0.3,0.1,0.5,0.4,0.7c0.2,0.2,0.6,0.3,1.2,0.5
	c0.6,0.2,1,0.3,1.3,0.6c0.3,0.2,0.6,0.4,0.7,0.7c0.2,0.3,0.2,0.6,0.2,1c0,0.6-0.2,1.1-0.7,1.4c-0.5,0.3-1.1,0.5-1.8,0.5
	c-0.5,0-1-0.1-1.4-0.3c-0.4-0.2-0.8-0.5-1-0.8c-0.2-0.3-0.4-0.7-0.4-1.2h1.2c0,0.4,0.1,0.7,0.4,0.9c0.3,0.2,0.7,0.3,1.1,0.3
	c0.4,0,0.8-0.1,1-0.3C141.8,35.7,141.9,35.5,141.9,35.2z M152.4,30.9h-2.2V37h-1.2v-6.1h-2.2v-1h5.6V30.9z M160.5,33.8h-2.9V36h3.4
	v1h-4.6v-7.1h4.6v1h-3.4v2h2.9V33.8z M166.6,29.9l2.1,5.4l2-5.4h1.6V37H171v-2.3l0.1-3.1l-2.1,5.5h-0.9l-2.1-5.5l0.1,3.1V37H165
	v-7.1H166.6z"/>
</svg>
